assets/img/logo.svg

<?xml version="1.0" encoding="UTF-8"?><svg id="Layer_1" xmlns="http://www.w3.org/2000/svg" viewBox="0 0 1080 1080"><defs><style>.cls-1{fill:#007f61;}.cls-2{fill:#50ada6;}</style></defs><path class="cls-1" d="m186.62,742.71h39.3c25.55,0,39.79,13.91,39.79,32.35,0,9.06-4.69,19.25-14.39,23.61,11.64,3.56,19.57,13.75,19.57,25.72,0,20.54-12.94,31.54-42.86,31.54h-41.4v-113.21Zm38.49,19.41h-15.2v28.63h15.2c12.61,0,17.31-5.34,17.31-14.39s-4.69-14.23-17.31-14.23Zm-15.2,48.03v26.36h20.05c12.29,0,16.82-4.85,16.82-13.1s-4.53-13.26-16.82-13.26h-20.05Z"/><path class="cls-1" d="m328.3,742.71h69.54v19.73h-46.25v30.4h38.82v19.73h-38.82v23.61h47.71v19.73h-71v-113.21Z"/><path class="cls-1" d="m456.71,771.5c0-18.28,12.94-30.73,36.39-30.73,10.84,0,22,2.91,30.41,7.92l-7.12,18.44c-5.82-3.88-13.58-6.31-21.02-6.31-10.19,0-15.04,3.72-15.04,9.54,0,6.31,4.2,10.11,19.57,17.14,19.81,9.06,29.27,19.08,29.27,36.07,0,20.86-14.23,34.29-40.92,34.29-11.81,0-24.42-3.4-33.96-9.22l7.12-18.76c7.28,5.01,17.14,7.92,25.88,7.92,11.32,0,18.27-4.53,18.27-12.37,0-8.33-5.9-13.02-19.81-19.08-22.48-9.79-29.03-20.22-29.03-34.85Z"/><path class="cls-1" d="m610.68,742.71v113.21h-23.29v-113.21h23.29Z"/><path class="cls-1" d="m712.4,855.92h-37.84v-113.21h37.84c36.71,0,61.46,20.7,61.46,56.61s-24.74,56.61-61.46,56.61Zm.16-93.48h-14.72v73.75h14.72c21.19,0,37.68-12.29,37.68-36.71s-16.5-37.04-37.68-37.04Z"/><path class="cls-1" d="m822.38,742.71h69.54v19.73h-46.25v30.4h38.82v19.73h-38.82v23.61h47.71v19.73h-71v-113.21Z"/><path class="cls-2" d="m539.29,642.15h0c0-116.12,94.13-210.25,210.25-210.25h0c0,116.12-94.13,210.25-210.25,210.25Z"/><path class="cls-2" d="m540.28,642.15h0c0-116.12-94.13-210.25-210.25-210.25h0c0,116.12,94.13,210.25,210.25,210.25Z"/><circle class="cls-1" cx="539.78" cy="327.02" r="104.88"/><path class="cls-2" d="m749.54,431.89c-57.92,0-104.88-46.96-104.88-104.88s46.96-104.88,104.88-104.88v209.76Z"/><path class="cls-2" d="m330.03,222.14c57.92,0,104.88,46.96,104.88,104.88s-46.96,104.88-104.88,104.88v-209.76Z"/></svg>

<?xml version="1.0" encoding="UTF-8" standalone="no"?>
<!DOCTYPE svg PUBLIC "-//W3C//DTD SVG 1.1//EN" "http://www.w3.org/Graphics/SVG/1.1/DTD/svg11.dtd">
<svg width="100%" height="100%" viewBox="0 0 707 634" version="1.1" xmlns="http://www.w3.org/2000/svg" xmlns:xlink="http://www.w3.org/1999/xlink" xml:space="preserve" xmlns:serif="http://www.serif.com/" style="fill-rule:evenodd;clip-rule:evenodd;stroke-linejoin:round;stroke-miterlimit:2;">
    <g id="Artboard1" transform="matrix(1,0,0,1,0,-0.01)">
        <rect x="0" y="0.01" width="706.76" height="633.77" style="fill:none;"/>
        <clipPath id="_clip1">
            <rect x="0" y="0.01" width="706.76" height="633.77"/>
        </clipPath>
        <g clip-path="url(#_clip1)">
            <g transform="matrix(1,0,0,1,-186.62,-222.12)">
                <path d="M186.62,742.71L225.92,742.71C251.47,742.71 265.71,756.62 265.71,775.06C265.71,784.12 261.02,794.31 251.32,798.67C262.96,802.23 270.89,812.42 270.89,824.39C270.89,844.93 257.95,855.93 228.03,855.93L186.63,855.93L186.63,742.72L186.62,742.71ZM225.11,762.12L209.91,762.12L209.91,790.75L225.11,790.75C237.72,790.75 242.42,785.41 242.42,776.36C242.42,767.31 237.73,762.13 225.11,762.13L225.11,762.12ZM209.91,810.15L209.91,836.51L229.96,836.51C242.25,836.51 246.78,831.66 246.78,823.41C246.78,815.16 242.25,810.15 229.96,810.15L209.91,810.15Z" style="fill:rgb(0,127,97);fill-rule:nonzero;"/>
            </g>
            <g transform="matrix(1,0,0,1,-186.62,-222.12)">
                <path d="M328.3,742.71L397.84,742.71L397.84,762.44L351.59,762.44L351.59,792.84L390.41,792.84L390.41,812.57L351.59,812.57L351.59,836.18L399.3,836.18L399.3,855.91L328.3,855.91L328.3,742.7L328.3,742.71Z" style="fill:rgb(0,127,97);fill-rule:nonzero;"/>
            </g>
            <g transform="matrix(1,0,0,1,-186.62,-222.12)">
                <path d="M456.71,771.5C456.71,753.22 469.65,740.77 493.1,740.77C503.94,740.77 515.1,743.68 523.51,748.69L516.39,767.13C510.57,763.25 502.81,760.82 495.37,760.82C485.18,760.82 480.33,764.54 480.33,770.36C480.33,776.67 484.53,780.47 499.9,787.5C519.71,796.56 529.17,806.58 529.17,823.57C529.17,844.43 514.94,857.86 488.25,857.86C476.44,857.86 463.83,854.46 454.29,848.64L461.41,829.88C468.69,834.89 478.55,837.8 487.29,837.8C498.61,837.8 505.56,833.27 505.56,825.43C505.56,817.1 499.66,812.41 485.75,806.35C463.27,796.56 456.72,786.13 456.72,771.5L456.71,771.5Z" style="fill:rgb(0,127,97);fill-rule:nonzero;"/>
            </g>
            <g transform="matrix(1,0,0,1,-186.62,-222.12)">
                <rect x="587.39" y="742.71" width="23.29" height="113.21" style="fill:rgb(0,127,97);fill-rule:nonzero;"/>
            </g>
            <g transform="matrix(1,0,0,1,-186.62,-222.12)">
                <path d="M712.4,855.92L674.56,855.92L674.56,742.71L712.4,742.71C749.11,742.71 773.86,763.41 773.86,799.32C773.86,835.23 749.12,855.93 712.4,855.93L712.4,855.92ZM712.56,762.44L697.84,762.44L697.84,836.19L712.56,836.19C733.75,836.19 750.24,823.9 750.24,799.48C750.24,775.06 733.74,762.44 712.56,762.44Z" style="fill:rgb(0,127,97);fill-rule:nonzero;"/>
            </g>
            <g transform="matrix(1,0,0,1,-186.62,-222.12)">
                <path d="M822.38,742.71L891.92,742.71L891.92,762.44L845.67,762.44L845.67,792.84L884.49,792.84L884.49,812.57L845.67,812.57L845.67,836.18L893.38,836.18L893.38,855.91L822.38,855.91L822.38,742.7L822.38,742.71Z" style="fill:rgb(0,127,97);fill-rule:nonzero;"/>
            </g>
            <g transform="matrix(1,0,0,1,-186.62,-222.12)">
                <path d="M539.29,642.15C539.29,526.03 633.42,431.9 749.54,431.9C749.54,548.02 655.41,642.15 539.29,642.15Z" style="fill:rgb(80,173,166);fill-rule:nonzero;"/>
            </g>
            <g transform="matrix(1,0,0,1,-186.62,-222.12)">
                <path d="M540.28,642.15C540.28,526.03 446.15,431.9 330.03,431.9C330.03,548.02 424.16,642.15 540.28,642.15Z" style="fill:rgb(80,173,166);fill-rule:nonzero;"/>
            </g>
            <g transform="matrix(1,0,0,1,-186.62,-222.12)">
                <circle cx="539.78" cy="327.02" r="104.88" style="fill:rgb(0,127,97);"/>
            </g>
            <g transform="matrix(1,0,0,1,-186.62,-222.12)">
                <path d="M749.54,431.89C691.62,431.89 644.66,384.93 644.66,327.01C644.66,269.09 691.62,222.13 749.54,222.13L749.54,431.89Z" style="fill:rgb(80,173,166);fill-rule:nonzero;"/>
            </g>
            <g transform="matrix(1,0,0,1,-186.62,-222.12)">
                <path d="M330.03,222.14C387.95,222.14 434.91,269.1 434.91,327.02C434.91,384.94 387.95,431.9 330.03,431.9L330.03,222.14Z" style="fill:rgb(80,173,166);fill-rule:nonzero;"/>
            </g>
        </g>
    </g>
</svg>
